X:346
T: Ich ging mit Lust und Freud (4-45), S. 62
N: P0606
O: Lothringen
S: PINCK, Louis: Verklingende Weisen Bd 4, Kassel 1939]
R: ???, Liebe]
M: 4/4
L: 1/16
K: D
A,4 | D2E2F2G2A4d4 | B2B2d2B2A6
A2 | A4G2E2F2E2D2E2 | F4E4D4z2
F2 | F4A4A4G4 | F4A4E4z4
F4A2A2A4G4 | F4A4E4z4
D3EF2G2A4d4 | B4d2B2A4z2
A2 | A4G2E2F2E2D2E2 | F4E4D4

